assets/icons/bowtie/uE618-clone-to-desktop.svg

<svg xmlns="http://www.w3.org/2000/svg" viewBox="0 0 448 448"><path d="M224 384v32h64v32h-160v-32h64v-32h-192v-288h160v32h-128v224h352v-224h-128v-32h160v288h-192zm36.227-203.187l-36.227 36.467v-217.28h-32v217.277l-35.758-36.465-22.488 22.375 74.63 75.438 74.523-75.438-22.68-22.374z"/></svg>

<svg xmlns="http://www.w3.org/2000/svg" viewBox="0 0 448 448"><path d="M224 384v32h64v32H128v-32h64v-32H0V96h160v32H32v224h352V128H256V96h160v288H224zm36.227-203.187L224 217.28V0h-32v217.277l-35.758-36.465-22.488 22.375 74.63 75.438 74.523-75.438-22.68-22.374z"/></svg>
